X:1
T:Title
%%score { 1 | 2 }
L:1/8
M:3/4
K:F
V:1 treble nm="Grand Piano"
V:2 bass 
V:1
 z2 z2[Q:1/4=108] C2 | [Ac]3 [Bd] [Ac]2 | [GB]2 [Ac]2 [GB]2 | [FA] [Ac]3 F2 | F A3 [Ac]2 | %5
 [Bd]2 [Ac]2 [FA]2 | [EG]4 [FA]2 | [Ac]3 [Bd] [Ac]2 | [GB]2 [Ac]2 [GB]2 | [FA]2 [CF]2 [DF]2 | %10
 F2 E2 F2 | [EG]2 [EA]3 [EG] |[M:2/4] F4 |[M:1/4] C2 |[M:3/4] A3 B A2 | [EG] [EA]3 [EG]2 | %16
 F A3 FF | f3 [Fe] [Fd]2 | c2 A2 F2 | [EG]4 C2 | [Ac]3 [Bd] [Ac]2 | [GB]2 [Ac]2 [GB]2 | A F3 FF | %23
 F2 G2 F2 | E2 A3 G |[M:2/4] [A,F]4 |] %26
V:2
 z2 z2 [F,A,]2 | [F,C]3 [F,C] [F,C]2 | [C,C]2 [C,C]2 [C,C]2 | [F,C] [F,C]3 [F,A,]2 | %4
 [F,A,] [F,CF]3 [F,F]2 | [F,F]2 [F,F]2 [F,C]2 | [C,C]4 [F,C]2 | [F,C]3 [F,C] [F,C]2 | %8
 [C,C]2 [C,C]2 [C,C]2 | [F,C]2 [F,A,]2 [B,,B,]2 | [C,A,C]2 [C,G,C]2 [C,A,C]2 | %11
 [C,B,]2 [C,C]3 [C,B,] |[M:2/4] [F,A,]4 |[M:1/4] [F,A,]2 |[M:3/4] [F,CF]3 [F,DF] [F,CF]2 | %15
 [C,B,] [C,C]3 [C,B,]2 | [F,A,] [F,CF]3 [F,A,][F,A,] | [B,,DF]3 [B,,C] [B,,B,]2 | %18
 [F,A,F]2 [F,CF]2 [F,A,]2 | [C,C]4 [F,A,]2 | [F,C]3 [F,C] [F,C]2 | [C,C]2 [C,C]2 [C,C]2 | %22
 [F,CF] [F,A,C]3 [D,A,D][D,A,D] | [C,A,]2 [C,B,C]2 [C,A,C]2 | [C,G,B,]2 [C,E,C]3 [C,E,B,] | %25
[M:2/4] [F,,F,]4 |] %26

